icons/uwsgi.svg

<?xml version="1.0" encoding="UTF-8"?>
<svg width="512px" height="161px" viewBox="0 0 512 161" version="1.1" xmlns="http://www.w3.org/2000/svg" xmlns:xlink="http://www.w3.org/1999/xlink" preserveAspectRatio="xMidYMid">
		<g>
				<path d="M0.121808156,54.6135771 L0.122148571,122.27072 C0.122148571,122.27072 -0.365714286,160.792869 35.5964343,159.939291 C41.2042971,159.695726 61.9278629,160.67072 67.0478629,144.579291 C67.0478629,144.213577 67.0478629,157.013577 67.0478629,157.013577 L91.9164343,157.013577 L91.9617829,54.6135771 L67.0932114,54.6135771 L67.0478629,117.882149 C67.0478629,117.882149 67.7792914,140.556434 46.5678629,139.459291 C25.3564343,138.362149 25.7221486,119.71072 25.7221486,119.71072 L25.6,54.6135771 L0.121808156,54.6135771 Z" fill="#AEC84D" fill-rule="nonzero"></path>
				<polygon fill="#141215" fill-rule="nonzero" points="132.388571 159.695726 142.628571 159.695726 176.03072 77.0442971 209.432137 159.45216 219.672137 159.45216 261.12 6.82715429 236.007863 0.487862857 210.894994 94.8421486 181.15072 20.4807314 170.666423 20.4807314 141.897143 94.11072 116.053577 0.487862857 91.1850057 6.82715429"></polygon>
				<path d="M260.388571,125.074286 C260.388571,125.074286 266.727863,144.09216 277.211429,150.918583 C287.694994,157.745006 305.492846,160.426423 314.026423,160.182857 C322.56,159.939291 365.958583,159.207863 366.445714,118.979291 C370.102857,98.4992914 352.305006,83.6264229 347.428571,80.7007086 C342.552137,77.7749943 326.704274,67.5349943 314.026423,63.8778514 C301.348571,60.2207086 288.913554,52.1749943 287.93856,45.8364343 C286.963566,39.4978743 287.939291,20.9678629 315.245714,20.7235657 C334.262857,22.6750171 334.994286,30.7207314 337.92,35.1093029 L343.04,45.5921371 L364.007131,35.8407314 C364.007131,35.8407314 355.71712,16.09216 353.767131,14.3850057 C351.817143,12.6778514 344.014994,0.487862857 313.294994,0.73216 C282.574994,0.974994286 264.533577,13.6535771 263.314286,35.5964343 C262.094994,57.5392914 266.727131,67.7792914 289.157851,81.4321371 C303.054994,88.99072 317.684297,90.6971429 332.8,102.156434 C343.283566,110.690011 341.090011,120.44288 340.845714,124.587154 C340.601417,128.731429 335.481417,140.434286 314.269989,139.459291 C293.05856,138.484297 288.914286,129.951451 287.451429,127.512869 C285.988571,125.074286 280.868571,115.078583 280.868571,115.078583 L260.388571,125.074286 Z" fill="#141215" fill-rule="nonzero"></path>
				<rect fill="#141215" fill-rule="nonzero" x="486.156434" y="3.17001143" width="25.8435657" height="154.574994"></rect>
				<path d="M431.786423,75.3378743 L431.786423,95.5735771 L451.77856,95.5735771 L451.77856,136.533577 C451.77856,136.533577 445.682834,140.191451 432.273554,139.703589 C418.864274,139.215726 397.653577,140.922149 395.946423,79.9700114 C394.239269,19.0178743 423.253577,20.9678629 426.666423,20.9678629 C430.079269,20.9678629 447.146423,21.21216 455.923566,45.3493029 C456.167863,45.5928686 476.891429,35.5964343 476.891429,35.5964343 C476.891429,35.5964343 467.869989,-1.21856 427.885714,0.73216 C387.90144,2.68214857 372.54144,23.4057143 370.347154,75.3378743 C368.152869,127.269303 386.437851,161.159314 430.08,159.45216 C473.722149,157.745006 476.891429,154.087863 476.891429,154.087863 L476.83072,75.3985829 L431.786423,75.3378743 Z" fill="#141215" fill-rule="nonzero"></path>
				<circle fill="#AEC84D" fill-rule="nonzero" cx="347.672137" cy="28.5264457" r="8.53357714"></circle>
				<circle fill="#252326" fill-rule="nonzero" cx="347.672137" cy="28.5264457" r="2.56"></circle>
				<path d="M25.70752,112.027794 L25.6,54.6135771 L0.122148571,54.6135771 L0.122148571,121.085806 C7.41595429,117.040274 16.1111771,113.921463 25.70752,112.027794 Z"></path>
				<path d="M91.9617829,54.6135771 L67.0932114,54.6135771 L67.05152,111.681829 C76.2719086,113.330469 84.7089371,116.101851 91.9325257,119.74144 L91.9617829,54.6135771 Z"></path>
				<path d="M0.122148571,122.27072 C0.122148571,122.27072 -0.365714286,160.792869 35.5964343,159.939291 C41.2042971,159.695726 61.9278629,160.67072 67.0478629,144.579291 C67.0478629,144.213577 67.0478629,157.013577 67.0478629,157.013577 L91.9164343,157.013577 L91.9332571,119.74144 C84.7096686,116.101851 76.27264,113.330469 67.0522514,111.681829 L67.0478629,117.882149 C67.0478629,117.882149 67.7792914,140.556434 46.5678629,139.459291 C25.3564343,138.362149 25.7221486,119.71072 25.7221486,119.71072 L25.70752,112.027794 C16.1111771,113.921463 7.41595429,117.040274 0.122148571,121.085806 L0.122148571,122.27072 Z" fill="#FFFFFF" fill-rule="nonzero" opacity="0.1"></path>
				<path d="M217.153829,71.32672 L210.894994,94.8421486 L200.731063,69.4337829 C183.988663,67.2994743 168.496274,64.6619429 154.599131,61.6016457 L141.897143,94.11072 L131.272411,55.6222171 C119.277714,52.0411429 109.120366,48.0797257 101.15584,43.8228114 L132.388571,159.695726 L142.628571,159.695726 L176.03072,77.0442971 L209.432869,159.45216 L219.672869,159.45216 L243.003977,73.5392914 C234.150034,72.9285486 225.521371,72.1883429 217.153829,71.32672 Z"></path>
				<path d="M261.12,6.82715429 L236.007863,0.487862857 L217.15456,71.32672 C225.522103,72.1883429 234.150766,72.9285486 243.003977,73.5392914 L261.12,6.82715429 Z" fill="#FFFFFF" fill-rule="nonzero" opacity="0.1"></path>
				<path d="M116.053577,0.487862857 L91.1850057,6.82715429 L101.156571,43.8228114 C109.121097,48.0797257 119.277714,52.0411429 131.273143,55.6222171 L116.053577,0.487862857 Z" fill="#FFFFFF" fill-rule="nonzero" opacity="0.1"></path>
				<path d="M181.15072,20.4807314 L170.667154,20.4807314 L154.599863,61.6016457 C168.497006,64.6626743 183.990126,67.2994743 200.731794,69.4337829 L181.15072,20.4807314 Z" fill="#FFFFFF" fill-rule="nonzero" opacity="0.1"></path>
				<path d="M313.294994,0.73216 C282.574994,0.974994286 264.533577,13.6535771 263.314286,35.5964343 C262.283703,54.13888 265.433234,64.3240229 279.968914,75.27424 C287.755703,75.4753829 295.65952,75.5807086 303.664274,75.5807086 C315.293989,75.5807086 326.714514,75.3620114 337.862949,74.9429029 C330.939246,70.9302857 321.876846,66.1423543 314.026423,63.8778514 C301.348571,60.2207086 288.913554,52.1749943 287.93856,45.8364343 C286.963566,39.4978743 287.939291,20.9678629 315.245714,20.7235657 C334.262857,22.6750171 334.994286,30.7207314 337.92,35.1093029 L343.04,45.5921371 L364.007131,35.8407314 C364.007131,35.8407314 355.71712,16.09216 353.767131,14.3850057 C351.817143,12.6778514 344.014994,0.487862857 313.294994,0.73216 Z" fill="#FFFFFF" fill-rule="nonzero" opacity="0.1"></path>
				<path d="M427.885714,0.73216 C388.483657,2.65362286 372.994194,22.8081371 370.45248,73.0923886 C379.190857,72.4224 387.69664,71.6244114 395.933989,70.7079314 C397.283474,19.2321829 423.437897,20.9678629 426.667886,20.9678629 C430.080731,20.9678629 447.147886,21.21216 455.925029,45.3493029 C456.167863,45.5928686 476.891429,35.5964343 476.891429,35.5964343 C476.891429,35.5964343 467.869989,-1.21856 427.885714,0.73216 Z" fill="#FFFFFF" fill-rule="nonzero" opacity="0.1"></path>
				<path d="M486.156434,52.3629714 C496.703634,48.6816914 505.423726,44.6676114 512,40.3968 L512,3.17001143 L486.156434,3.17001143 L486.156434,52.3629714 Z" fill="#FFFFFF" fill-rule="nonzero" opacity="0.1"></path>
		</g>
</svg>

<svg xmlns="http://www.w3.org/2000/svg" viewBox="0 0 511.878 159.71">
  <g transform="translate(-.122 -.488)">
    <path fill="#aec84d" d="M.122 54.614v67.657s-.488 38.522 35.474 37.668c5.608-.243 26.332.732 31.452-15.36v12.435h24.868l.046-102.4H67.093l-.045 63.268s.731 22.674-20.48 21.577c-21.212-1.097-20.846-19.748-20.846-19.748L25.6 54.614z"/>
    <path fill="#141215" d="m176.03 77.044 33.402 82.408h10.24L261.12 6.827 236.008.487l-25.113 94.355-29.744-74.361h-10.485l-28.769 73.63L116.054.488l-24.869 6.34 41.204 152.868h10.24zM260.389 125.074s6.339 19.018 16.822 25.845c10.484 6.826 28.282 9.507 36.815 9.264 8.534-.244 51.933-.975 52.42-41.204 3.657-20.48-14.141-35.353-19.017-38.278-4.877-2.926-20.725-13.166-33.403-16.823-12.677-3.657-25.112-11.703-26.087-18.042-.975-6.338 0-24.868 27.307-25.112 19.017 1.951 19.748 9.997 22.674 14.385l5.12 10.483 20.967-9.751s-8.29-19.749-10.24-21.456c-1.95-1.707-9.752-13.897-40.472-13.653-30.72.243-48.761 12.922-49.98 34.864-1.22 21.943 3.412 32.183 25.843 45.836 13.897 7.559 28.526 9.265 43.642 20.724 10.484 8.534 8.29 18.287 8.046 22.431-.245 4.144-5.365 15.847-26.576 14.872-21.211-.975-25.356-9.508-26.819-11.946-1.462-2.439-6.582-12.434-6.582-12.434zM486.156 3.17H512v154.575h-25.844zM431.786 75.338v20.236h19.993v40.96s-6.096 3.657-19.505 3.17c-13.41-.488-34.62 1.218-36.328-59.734-1.707-60.952 27.308-59.002 30.72-59.002 3.413 0 20.48.244 29.258 24.381.244.244 20.967-9.753 20.967-9.753S467.87-1.219 427.886.732c-39.985 1.95-55.345 22.674-57.539 74.606-2.194 51.931 16.09 85.821 59.733 84.114 43.642-1.707 46.811-5.364 46.811-5.364l-.06-78.69z"/>
    <circle cx="347.672" cy="28.526" r="8.534" fill="#aec84d"/>
    <circle cx="347.672" cy="28.526" r="2.56" fill="#252326"/>
    <path d="M25.708 112.028 25.6 54.614H.122v66.472c7.294-4.046 15.99-7.165 25.586-9.058zM91.962 54.614H67.093l-.041 57.068c9.22 1.648 17.657 4.42 24.88 8.06z"/>
    <path fill="#fff" d="M.122 122.27s-.488 38.523 35.474 37.67c5.608-.244 26.332.73 31.452-15.36v12.434h24.868l.017-37.273c-7.223-3.64-15.66-6.41-24.88-8.06l-.005 6.201s.731 22.674-20.48 21.577c-21.212-1.097-20.846-19.748-20.846-19.748l-.014-7.683C16.11 113.92 7.416 117.04.122 121.086z" opacity=".1"/>
    <path d="m217.154 71.327-6.259 23.515-10.164-25.408c-16.742-2.135-32.235-4.772-46.132-7.832L141.897 94.11l-10.625-38.489c-11.994-3.58-22.152-7.542-30.116-11.8l31.233 115.874h10.24l33.402-82.652 33.402 82.408h10.24l23.331-85.913a769.78 769.78 0 0 1-25.85-2.212z"/>
    <path fill="#fff" d="M261.12 6.827 236.008.487l-18.853 70.84a769.9 769.9 0 0 0 25.849 2.212zM116.054.488l-24.869 6.34 9.972 36.995c7.964 4.257 18.12 8.218 30.116 11.8zM181.15 20.48h-10.483L154.6 61.603c13.897 3.06 29.39 5.697 46.132 7.832zM313.295.732c-30.72.243-48.761 12.922-49.98 34.864-1.031 18.543 2.118 28.728 16.654 39.678a917.831 917.831 0 0 0 57.894-.331c-6.924-4.013-15.986-8.8-23.837-11.065-12.677-3.657-25.112-11.703-26.087-18.042-.975-6.338 0-24.868 27.307-25.112 19.017 1.951 19.748 9.997 22.674 14.385l5.12 10.483 20.967-9.751s-8.29-19.749-10.24-21.456c-1.95-1.707-9.752-13.897-40.472-13.653zM427.886.732c-39.402 1.922-54.892 22.076-57.434 72.36a747.364 747.364 0 0 0 25.482-2.384c1.35-51.476 27.504-49.74 30.734-49.74 3.413 0 20.48.244 29.257 24.381.243.244 20.966-9.753 20.966-9.753S467.87-1.219 427.886.732zM486.156 52.363c10.548-3.681 19.268-7.695 25.844-11.966V3.17h-25.844z" opacity=".1"/>
  </g>
</svg>
